client/filepreviewer/pdfjs/web/images/toolbarButton-secondaryToolbarToggle.svg

<svg width="16" height="16" viewBox="0 0 16 16" fill="none" xmlns="http://www.w3.org/2000/svg">
<path d="M2.53406 13.818L7.99906 8.35203L8.00006 7.64703L2.53606 2.18203C2.41769 2.06965 2.26012 2.00795 2.09692 2.01006C1.93372 2.01218 1.7778 2.07795 1.66239 2.19336C1.54698 2.30877 1.48121 2.46469 1.47909 2.62789C1.47697 2.79109 1.53868 2.94867 1.65106 3.06703L6.58506 7.99803L1.65006 12.932C1.53754 13.0503 1.47565 13.2078 1.47758 13.371C1.47951 13.5342 1.54511 13.6902 1.66039 13.8057C1.77567 13.9213 1.93152 13.9872 2.09472 13.9895C2.25792 13.9918 2.41557 13.9303 2.53406 13.818ZM8.53406 13.818L13.9991 8.35203L14.0001 7.64703L8.53606 2.18203C8.4177 2.06965 8.26012 2.00795 8.09692 2.01006C7.93372 2.01218 7.7778 2.07795 7.66239 2.19336C7.54698 2.30877 7.48121 2.46469 7.47909 2.62789C7.47697 2.79109 7.53868 2.94867 7.65106 3.06703L12.5851 7.99803L7.65006 12.932C7.53754 13.0503 7.47565 13.2078 7.47758 13.371C7.47951 13.5342 7.54511 13.6902 7.66039 13.8057C7.77567 13.9213 7.93152 13.9872 8.09472 13.9895C8.25792 13.9918 8.41557 13.9303 8.53406 13.818Z" fill="black"/>
</svg>

<svg xmlns="http://www.w3.org/2000/svg" width="16" height="16" fill="none"><path d="M2.534 13.818l5.465-5.466L8 7.647 2.536 2.182c-.118-.112-.276-.174-.439-.172s-.319.068-.435.183-.181.271-.183.435.06.321.172.439l4.934 4.931-4.935 4.934c-.113.118-.174.276-.172.439s.068.319.183.435.271.181.434.184.321-.059.439-.171zm6 0l5.465-5.466.001-.705-5.464-5.465c-.118-.112-.276-.174-.439-.172s-.319.068-.435.183-.181.271-.183.435.06.321.172.439l4.934 4.931-4.935 4.934c-.113.118-.174.276-.172.439s.068.319.183.435.271.181.434.184.321-.059.439-.171z" fill="#000"/></svg>
